X: 1762
T: An Old Favourite Jig of Eileen McCoy's
C:Trad
B: australian traditional tunes wiki
M:6/8
L:1/8
R: Jig
Q: 3/8=100
K:D
V:1 
FE|:"D"DFA dcd|"G"BAG "D"FED|"G"DFA "D"Bcd|"A7"cAA A2c|
"D"dfd "A7"ecA|"G"GAB "D"AFD|"Em"EFG "A7"EAG|"D"FDDD2G:|
|:"D"FDF "G"GAB|"D"AFD "A7"E2D|"D"DFA "G"Bcd|"A7"cAAA2c|
dfd "A7"ecA|"G"GAB "D"AFD|"Em"EFG "A7"EAG|"D"FDDD3:|
% abcbook-tune_id 6342d53a8f7a4129b2d59f22


% abcbook-boost 0
% abcbook-tablature 
% abcbook-transpose 
% abcbook-lastupdated 1665324382328
% abcbook-soundfonts 
% abcbook-repeats 1
% NFF Book 2016

